X: 14495
T: Gan Ainm
R: barndance
M: 4/4
K: Gmajor
dc|:B2 dB cBAG|DGGF G2 AB|cBcd edcB|cBAG A2 dc|
B2 dB cBAG|DGGF G2 AB|cBcd eged|1 cAFA G2 dc:|2 cAGA G2 D2||
G2 DG B2 GB|d2 Bd g2 dg|f2 e2 c2 A2|d2 c2 B2 A2|
G2 DG B2 GB|d2 Bd g2 dg|f2 e2 c2 F2|1 G2 GF G2 D2:|2 G2 GF G2 dc||

